X: 21282
M: C|
L: 1/8
K: G
|:\
ga |\
b2{b}ag g3a | bage dega | b2a2 a3b | abag {f}e3g |\
d3e g3a | bage g3a | g/a/b G2 ABcB | {B2}A4 G2 |]


